X:1359
T:"Dr. Taylor"         (reel)    1359
C:after Mr. McFadden
B:O'Neill's Music Of Ireland (The 1850) Lyon & Healy, Chicago, 1903 edition
Z:FROM O'NEILL'S TO NOTEWORTHY, FROM NOTEWORTHY TO ABC, MIDI AND .TXT BY VINCE
BRENNAN July 2003 (HTTP://WWW.SOSYOURMOM.COM)
I:abc2nwc
M:C|
L:1/8
K:G
G2FG EGDF|G2Bd cBAF|G2FG EGDc| (3(Bcd) gB cBAF|
G2FG EGDF|G2Bd cBAF|GFGA  (3(Bcd) ef|gdcA BG"^FINE"||
gdBd edBd|cABG AGEG| TR(gf)gd edBd|dedc BG G z|
(3(gfe) fd edBd| (3(cBA) BG AGEG|(3(DEF) GA  (3(Bcd) ef|(3(gab) af ged"^Da Capo al Fine"B|]
